X:1
T: On wi' the Tartan
C:
R:Jig
Q:180
K:Bm
M:6/8
L:1/16
|:Ad|B3AF2 E3DE2|F3EF2 A4Ad|B3AF2 E3DE2|F2d2c2 B4Ad|
B3AF2 E3DE2|F3EF2 A4Ad|B3AF2 E3DE2|F2d2c2 B4de|
f3ed2 e3dc2|d2B2A2 F4Ad|B3AF2 E3DE2|F2d2c2 B4de|
f3ed2 e3dc2|d2B2A2 F4Ad|B3AF2 E3DE2|F2d2c2 B4:|
